icons/type-icons/icons/application-vnd.oasis.opendocument.text-template.svg

<?xml version="1.0" encoding="UTF-8"?>
<svg id="svg2" width="22" height="22" version="1.1" xmlns="http://www.w3.org/2000/svg" xmlns:cc="http://creativecommons.org/ns#" xmlns:dc="http://purl.org/dc/elements/1.1/" xmlns:rdf="http://www.w3.org/1999/02/22-rdf-syntax-ns#">
 <metadata id="metadata3874">
  <rdf:RDF>
   <cc:Work rdf:about="">
    <dc:format>image/svg+xml</dc:format>
    <dc:type rdf:resource="http://purl.org/dc/dcmitype/StillImage"/>
   </cc:Work>
  </rdf:RDF>
 </metadata>
 <g id="layer1" transform="translate(-326 -534.36)">
  <g id="layer1-23" fill="#0b4764">
   <path id="rect4847" transform="translate(326 534.36)" d="m3 3v1h8v-1h-8zm0 4v1h16v-1h-16zm0 4v1h7v-1h-7zm8 0v8h8v-8h-8zm1 1h6v6h-6v-6zm-9 2v1h7v-1h-7zm0 4v1h7v-1h-7z" fill="#0b4764" stroke-linecap="round" stroke-linejoin="round" stroke-width="2"/>
  </g>
 </g>
</svg>

<!-- Created with Inkscape (http://www.inkscape.org/) --><svg xmlns:dc="http://purl.org/dc/elements/1.1/" xmlns:cc="http://creativecommons.org/ns#" xmlns:rdf="http://www.w3.org/1999/02/22-rdf-syntax-ns#" xmlns:svg="http://www.w3.org/2000/svg" xmlns="http://www.w3.org/2000/svg" xmlns:sodipodi="http://sodipodi.sourceforge.net/DTD/sodipodi-0.dtd" xmlns:inkscape="http://www.inkscape.org/namespaces/inkscape" width="22" version="1.1" height="22" id="svg2" inkscape:version="0.91 r13725" sodipodi:docname="application-vnd.oasis.opendocument.text-template.svg">
  <sodipodi:namedview pagecolor="#ffffff" bordercolor="#666666" borderopacity="1" objecttolerance="10" gridtolerance="10" guidetolerance="10" inkscape:pageopacity="0" inkscape:pageshadow="2" inkscape:window-width="709" inkscape:window-height="480" id="namedview15" showgrid="false" inkscape:zoom="10.727273" inkscape:cx="0.6059322" inkscape:cy="11" inkscape:window-x="0" inkscape:window-y="0" inkscape:window-maximized="0" inkscape:current-layer="layer1"/>
  <defs id="defs3871"/>
  <metadata id="metadata3874">
    <rdf:RDF>
      <cc:Work rdf:about="">
        <dc:format>image/svg+xml</dc:format>
        <dc:type rdf:resource="http://purl.org/dc/dcmitype/StillImage"/>
      </cc:Work>
    </rdf:RDF>
  </metadata>
  <g inkscape:label="Capa 1" inkscape:groupmode="layer" id="layer1" transform="matrix(1 0 0 1 -326 -534.3622)">
    <g inkscape:label="Capa 1" id="layer1-23" style="fill:#0b4764;fill-opacity:1">
      <path style="fill:#0b4764;stroke-linecap:round;stroke-linejoin:round;stroke-width:2;fill-opacity:1" id="rect4847" d="M 3 3 L 3 4 L 11 4 L 11 3 L 3 3 z M 3 7 L 3 8 L 19 8 L 19 7 L 3 7 z M 3 11 L 3 12 L 10 12 L 10 11 L 3 11 z M 11 11 L 11 19 L 19 19 L 19 11 L 11 11 z M 12 12 L 18 12 L 18 18 L 12 18 L 12 12 z M 3 14 L 3 15 L 10 15 L 10 14 L 3 14 z M 3 18 L 3 19 L 10 19 L 10 18 L 3 18 z " transform="matrix(1 0 0 1 326 534.3622)"/>
    </g>
  </g>
</svg>
